!!!COM: Beethoven
!!!OTL: Acht Variationen uber "Une fievre brulante" aus "Richard Coeur de Lion" von A.E.M. Gretry
!!!Variation: Variation 4 c
**function	**harm	**kern	**kern
*	*	*clefF4	*clefG2
*	*	*k[b-e-a-]	*k[b-e-a-]
*M3/4	*M3/4	*M3/4	*M3/4
*c:	*c:	*c:	*c:
4D	4V	4B-	4r
=145	=145	=145	=145
2.D	2.V	(4B-	2r
.	.	4c	.
.	.	4d-)	4e 4g
=146	=146	=146	=146
2.D	2.viioD7d/iv	2d-	(4e 4g
.	.	.	4f 4a-
.	.	4d-	4g) 4b- 4ee
=147	=147	=147	=147
4D	4viioD7d/iv	(4d-	(4g 4b- 4ee
4D	4Cc/iv	4c	4a- 4cc 4ff
4D	4V7d/iv	4B-)	4cc) 4ee 4gg
=148	=148	=148	=148
2.D	2.iv	4A-	4cc 4ff 4aa-
.	.	4r	4r
.	.	4A-	4r
=149	=149	=149	=149
2D	2iv	(4A-	4r
.	.	4B-	4r
*	*	*	*^
4D	4viioD7	4B)	4dd	4f 4a-
=150	=150	=150	=150	=150
2.D	2.viioD7	2B	(4dd	2f 2a-
.	.	.	4ee-	.
.	.	(4BB	4ff	4a- 4dd
*	*	*	*v	*v
=151	=151	=151	=151
4T	4i	4C	4ee- 4g 4cc
4T	4iiob	4FF	4dd 4f 4a-
4T	4viioD7/V	4FF#)	4cc) 4e- 4a
=152	=152	=152	=152
2D	2V	4GG	4b 4d 4g
.	.	4r	4r
*-	*-	*-	*-
